X: 30251
T: Old Kentucky Blackberry Blossom
R: hornpipe
M: 4/4
K: Gmajor
D<EF|G>dB>G F>dA>F|E>F (3GFE D>G,B,>D|E>DE>G D>EG>A|B>c (3ccB A>DF>A|
G>dB>G F>dA>F|E>F (3GFE D>G,B,>D|E>GG>E D>EG>A|B>_BA G:|
G<GD|E2e>B d e2d|e>dB>_B A>GE>D|(3EEE e>B d e2d|e>dB>A (3BBB B>A|
(3Bcd e>b a>ge>d|e>dB>_B A>GE>D|(3EFG B>A G>ED>C|B,>_B,A, G,:|

